X: 96
T: Quand un Amante fidèle et tendre
C: Maria Szymanowska
%%abc-version 2.0
%%abcx-abcm2ps-target-version 5.9.1 (29 Sep 2008)
%%abc-creator hum2abc beta
%%abcx-conversion-date 2021/10/04 07:38:40
%%abc-edited-by Andrzej Borzym
%%abc-edited-by Andrzej Kubiczek
%%abcx-initial-encoding-date 2021-07-28
%%humdrum-veritas 378865772
%%humdrum-veritas-data 1612656770
%%linebreak <none>
%%barnumbers 0
L: 1/8
M: 3/4
N: Derived from pl-kozmzk--mzk-m-33--004_szymanowska-maria--quand-un-amante-fidele-et-tendre.krn
V: 1 clef=treble
V: 2 clef=treble
V: 3 clef=bass
K: F
[V:1] z6 | 
[V:2] F[C/A,/][C/A,/] [CA,][C/A,/]F/ [D/B,/]F/[E/_D/B,/]G/ | 
[V:3] F,,F,/F,/ .F,.F,.F,.F, | 
[V:1] z6 | 
[V:2] [FA,][C/A,/][C/A,/] [CA,][C/A,/]F/ [D/B,/]F/[E/_D/B,/]G/ | 
[V:3] F,,F,/F,/ .F,.F,.F,.F, | 
[V:1] z6 | 
[V:2] F[C/A,/][C/A,/] [CA,][CA,]A[CA,] | 
[V:3] F,,F,/F,/ F,F,F,F, | 
[V:1] z6 ||  
[V:2] F[C/A,/][C/A,/] [CA,][CA,][CA,][CA,] ||  
[V:3] F,,F,/F,/ F,F,F,F, ||  
[V:1] A2-(3ABA (3GA G | 
[V:2] [CA,][C/A,/][C/A,/] [CA,][CA,][DB,][DB,] | 
[V:3] F,,F,/F,/ F,F,F,F, | 
[V:1] D2-D F E G | 
[V:2] [DB,][D/B,/][D/B,/] [DB,][DB,][E_DB,][EDB,] | 
[V:3] F,,F,/F,/ F,F,F,F, | 
[V:1] G2F zz2 | 
[V:2] [FCA,][F/C/A,/][F/C/A,/] [FCA,][FCA,][FCA,][FCA,] | 
[V:3] F,,F,/F,/ F,F,F,F, | 
[V:1] !accent!c4BA | 
[V:2] [cFC][c/F/C/][c/F/C/] [cFC][cFC][cFC][cFC] | 
[V:3] A,,A,/A,/ A,A,A,A, | 
[V:1] G2-G/A/B/ c/ ^c/d/ B/ G/ | 
[V:2] [BGD][B/G/D/][B/G/D/] [BGD][BGD][BGD][BGD] | 
[V:3] B,,B,/B,/ B,B,B,B, | 
[V:1] F2E zz2 | 
[V:2] [A2F2][GE][c/E/]C/ [B/E/]C/[G/E/]C/ | 
[V:3] C2C,2z2 | 
[V:1] A2-(3ABA (3GA G | 
[V:2] [AF][C/A,/][C/A,/] [CA,][CA,][DB,][DB,] | 
[V:3] F,,F,/F,/ F,F,F,F, | 
[V:1] D2-(3DE F (3EF G | 
[V:2] [DB,][D/B,/][D/B,/] [DB,][DB,][E_DB,][EDB,] | 
[V:3] F,,F,/F,/ F,F,F,F, | 
[V:1] G2F2z2 | 
[V:2] [FCA,][F/C/A,/][F/C/A,/] [FCA,][FCA,][FCA,][FCA,] | 
[V:3] F,,F,/F,/ F,F,F,F, | 
[V:1] G4(3=BAG | 
[V:2] z [F=B,G,] z [FDG,] z [FB,G,] | 
[V:3] G,,2=B,,2G,,2 | 
[V:1] !accent!g>ec2z2 | 
[V:2] z [ECG,][ECG,][ECG,] z [cGC] | 
[V:3] C,4E,2 | 
[V:1] Ad dc c=B | 
[V:2] z [AF] z [cE] z [=BFD] | 
[V:3] F,2G,2G,,2 | 
[V:1] c6- | 
[V:2] [cE][G/E/][G/E/] [GE][G/E/]c/ [A/F/]c/[=B/_A/F/]d/ | 
[V:3] C,C/C/ CCCC | 
[V:1] c6- | 
[V:2] c[G/E/][G/E/] [GE][G/E/]c/ [A/F/]c/[=B/_A/F/]d/ | 
[V:3] C,C/C/ CCCC | 
[V:1] c4z2 | 
[V:2] c[G/E/][G/E/] [GE][GE]e[GE] | 
[V:3] C,C/C/ CCCC | 
[V:1] z2z G G G | 
[V:2] c[G/E/][G/E/] [GE][GE][GE][GE] | 
[V:3] C,C/C/ CCCC | 
[V:1] _A2>!accent!c2 B A | 
[V:2] [_AF][A/F/][A/F/] [AF][AF][AF][AF] | 
[V:3] C,C/C/ CCCC | 
[V:1] _A Gz2z G | 
[V:2] [GE][G/E/][G/E/] [GE][GE][GE][GE] | 
[V:3] C,C/C/ CCCC | 
[V:1] _A3c/ =B/ !accent!_d/c/ B/ _A/ | 
[V:2] [_AF][A/F/][A/F/] [AF][AF][AF][AF] | 
[V:3] C,C/C/ CCCC | 
[V:1] !fermata!G4^G G | 
[V:2] [G4E4]z2 | 
[V:3] !fermata!C,4z2 | 
[V:1] A3{/c/} B/A/ {/c/} B/A/ {/c/} B/ A/ | 
[V:2] z [AFC] z [AFC] z [AFC] | 
[V:3] [F,2F,,2][F,2F,,2][_E,2_E,,2] | 
[V:1] A B z d B G | 
[V:2] z [BFB,][BFB,][BFB,] z [GDB,] | 
[V:3] [D,4D,,4]B,,2 | 
[V:1] E !accent!E- E/F/G/A/ B/c/d/ c/ | 
[V:2] z [E/B,/G,/][E/B,/G,/] [EB,G,][EB,G,][EB,G,][EB,G,] | 
[V:3] C,4C,,2 | 
[V:1] A2z2z c | 
[V:2] z [F/C/A,/][F/C/A,/] [FCA,][FCA,][FCA,][FCA,] | 
[V:3] F,,4z2 | 
[V:1] c/B/ A/G/ ^F/_E/ D/ ^F/ d/c/ B/A/ | 
[V:2] z [c^FD] z [cAD] z [c^FD] | 
[V:3] D,2^F,2D,2 | 
[V:1] c B z ^c/d/ A/B/ G/ A/ | 
[V:2] z [BGD][BGD][BGD] z [GDB,] | 
[V:3] G,4B,,2 | 
[V:1] F2>A2 (3G/A/B/ G | 
[V:2] z [FCA,][FCA,][FCA,] z [EB,G,] | 
[V:3] C,4C,,2 | 
[V:1] F6- | 
[V:2] [FA,][C/A,/][C/A,/] [CA,][C/A,/]F/ [D/B,/]F/[E/_D/B,/]G/ | 
[V:3] F,,F,/F,/ F,F,F,F, | 
[V:1] F6- | 
[V:2] [FA,][C/A,/][C/A,/] [CA,][C/A,/]F/ [D/B,/]F/[E/_D/B,/]G/ | 
[V:3] F,,F,/F,/ F,F,F,F, | 
[V:1] F4z2 |[1 
[V:2] F[C/A,/][C/A,/] [CA,][CA,]A[CA,] | 
[V:3] F,,F,/F,/ F,F,F,F, | 
[V:1] z6 ||[2 
[V:2] F[C/A,/][C/A,/] [CA,][CA,][CA,][CA,] ||  
[V:3] F,,F,/F,/ F,F,F,F, ||  
[V:1] z6 | 
[V:2] F[C/A,/][C/A,/] [CA,][CA,]A[CA,] | 
[V:3] [F,6F,,6] | 
[V:1] !fermata!z6 |]  
[V:2] [F6C6A,6] |]  
[V:3] [F,6F,,6] |]  


